logos/jetbrains-space.svg

<?xml version="1.0" encoding="UTF-8"?>
<svg width="512px" height="142px" viewBox="0 0 512 142" version="1.1" xmlns="http://www.w3.org/2000/svg" preserveAspectRatio="xMidYMid">
    <title>Space</title>
    <defs>
        <linearGradient x1="45.0824163%" y1="-1.34304614%" x2="55.5220482%" y2="97.6099761%" id="spaceLinearGradient-1">
            <stop stop-color="#FCF84A" offset="0%"></stop>
            <stop stop-color="#ABE682" offset="32%"></stop>
            <stop stop-color="#36CDD2" offset="79%"></stop>
            <stop stop-color="#07C3F2" offset="100%"></stop>
        </linearGradient>
        <linearGradient x1="-2.94159918%" y1="38.9923346%" x2="100.445236%" y2="62.1053821%" id="spaceLinearGradient-2">
            <stop stop-color="#3BEA62" offset="0%"></stop>
            <stop stop-color="#087CFA" offset="100%"></stop>
        </linearGradient>
        <linearGradient x1="-3.30779496%" y1="71.8068763%" x2="111.745094%" y2="15.4620075%" id="spaceLinearGradient-3">
            <stop stop-color="#009AE5" offset="0%"></stop>
            <stop stop-color="#0490DD" offset="18%"></stop>
            <stop stop-color="#1073C6" offset="49%"></stop>
            <stop stop-color="#2346A1" offset="89%"></stop>
            <stop stop-color="#293896" offset="100%"></stop>
        </linearGradient>
    </defs>
    <g>
        <path d="M168.65798,94.5464714 L179.395058,81.3836783 C186.916654,87.626603 194.701506,91.594245 204.197521,91.594245 C211.535664,91.594245 215.956447,88.7305796 216.16773,84.0160085 L216.175663,83.4897252 L216.165133,83.013334 C216.05459,80.5924404 215.047147,78.7872627 211.896739,77.0666441 L211.259888,76.7345344 C211.038462,76.6240881 210.807781,76.513851 210.567512,76.4036807 L209.817602,76.0732271 L209.817602,76.0732271 L209.00815,75.7423178 C208.868168,75.6870808 208.725621,75.6317891 208.580469,75.5764249 L207.67794,75.2432275 C207.522195,75.1875021 207.363759,75.1316686 207.202591,75.0757091 L206.202469,74.738298 C206.030207,74.6817633 205.855129,74.6250671 205.677194,74.5681913 L204.57496,74.2246409 L204.57496,74.2246409 L203.402143,73.8759278 C203.20068,73.8173312 202.996192,73.7584839 202.788638,73.6993679 L200.836726,73.1595906 L200.836726,73.1595906 L197.409492,72.2544264 L197.409492,72.2544264 L196.090092,71.8927986 L196.090092,71.8927986 L194.164015,71.3401474 L194.164015,71.3401474 L192.916189,70.9628091 L192.916189,70.9628091 L191.698044,70.5766692 L191.698044,70.5766692 L190.51018,70.1802891 L190.51018,70.1802891 L189.3532,69.7722304 C178.700703,65.9047065 172.162084,60.3232061 171.935938,47.7646825 L171.929874,46.8407482 C171.929874,31.7913705 183.70475,21.7595914 200.315064,21.4982027 L200.982039,21.4929693 C212.201694,21.310963 223.124574,25.1006694 231.820583,32.1924398 L222.418588,46.1261966 C215.066228,40.9550992 207.826691,37.8336369 200.831607,37.8336369 C193.836523,37.8336369 190.150941,41.0679232 190.150941,45.1671931 L190.154147,45.6754999 L190.154147,45.6754999 L190.180467,46.2215897 C190.40734,49.2454253 191.984167,51.0900984 196.369305,52.8919901 L197.172601,53.2097581 L197.172601,53.2097581 L198.035983,53.5280258 L198.035983,53.5280258 L198.96123,53.8481809 L198.96123,53.8481809 L199.950125,54.1716113 L199.950125,54.1716113 L201.004448,54.4997046 L201.004448,54.4997046 L202.12598,54.8338488 L202.12598,54.8338488 L203.938191,55.3494462 L203.938191,55.3494462 L205.235537,55.7047891 L205.235537,55.7047891 L208.816407,56.6533339 L208.816407,56.6533339 L210.313304,57.0683141 C210.805301,57.2083998 211.290314,57.350308 211.768288,57.4942291 L213.181047,57.9322218 C226.632608,62.2282086 234.121462,68.3772552 234.371457,81.0245526 L234.377926,81.928994 C234.377926,98.6269373 221.798056,108.010498 203.896657,108.010498 C190.887742,108.044743 178.329591,103.246645 168.65798,94.5464714 Z M294.09938,74.7270657 L294.09938,74.4826139 C294.09938,63.7831434 286.991472,56.6940391 278.567284,56.6940391 C270.293528,56.6940391 263.398292,63.5322217 263.154672,73.9129015 L263.148012,74.7270657 C263.148012,85.4077322 270.143096,92.4968365 278.567284,92.4968365 C286.991472,92.4968365 294.09938,85.5393601 294.09938,74.7270657 Z M245.340633,42.4030065 L263.37366,42.4030065 L263.37366,51.6545697 C267.637089,45.1870166 274.83079,41.2782224 282.548741,41.1973982 L283.193065,41.1995511 C297.838313,41.1995511 311.803899,52.6986895 312.126699,73.7361576 L312.132406,74.7270657 C312.132406,95.9886938 298.575914,107.73506 283.717983,108.005357 L283.193065,108.010128 C275.436149,108.133572 268.081126,104.567712 263.37366,98.4012894 L263.37366,125.986743 L245.340633,125.986743 L245.340633,42.4030065 Z M360.044974,84.1102569 L360.044974,80.8571665 C356.427038,79.2355277 352.501512,78.4145027 348.536932,78.4502558 C340.827296,78.4502558 336.08869,81.5717182 336.08869,87.3445432 L336.08869,87.5701911 C336.08869,92.4968365 340.112744,95.392651 345.923177,95.392651 C354.347365,95.392651 360.044974,90.7104574 360.044974,84.1102569 Z M318.657391,88.3035467 L318.657391,88.1343108 C318.657391,74.0689261 329.20643,67.5815494 344.268426,67.5815494 C349.562206,67.5353887 354.821833,68.4332185 359.800522,70.2329121 L359.800522,69.1422806 C359.800522,61.6206845 355.17474,57.3709827 346.167629,57.3709827 C340.148774,57.3762469 334.188987,58.5579838 328.623506,60.8497209 L324.110548,46.9159642 C331.493228,43.4793928 339.537382,41.7111724 347.671659,41.7308944 L348.781383,41.7448668 C358.61587,41.7448668 365.704975,44.3962295 370.25554,48.9655991 C374.806106,53.5349687 377.118997,60.8497209 377.118997,69.5183604 L377.118997,106.806673 L359.687698,106.806673 L359.687698,99.8303927 C354.84049,105.311901 347.780858,108.316735 340.47002,108.010128 C328.491878,108.010128 318.657391,101.033848 318.657391,88.3035467 Z M386.615012,74.9527324 L386.615031,74.7270657 C386.434501,66.0164227 389.721655,57.5908299 395.753357,51.3038218 C401.785058,45.0168137 410.067221,41.3833893 418.777864,41.2028606 L419.366124,41.1959314 L419.366124,41.1959314 L419.954487,41.1995511 C431.932628,41.1995511 439.397812,45.280017 445.321069,52.0118455 L434.301931,64.0275953 C430.259073,59.7026775 426.235019,56.938491 419.822859,56.938491 C410.976589,56.938491 404.63342,64.7017327 404.409699,73.9753215 L404.403587,74.7270657 C404.403587,84.5803566 410.702923,92.4968365 420.53741,92.4968365 C426.592295,92.4968365 430.747977,89.8642779 435.129307,85.6521841 L445.678345,96.4644785 L444.868148,97.3484824 L444.868148,97.3484824 L444.044996,98.2090443 L444.044996,98.2090443 L443.2066,99.0446898 C437.702515,104.392213 431.08714,108.067218 420.529949,108.247626 L419.710035,108.25458 C401.662123,108.486338 386.843521,94.0434946 386.611759,75.9955829 C386.607283,75.6479723 386.607969,75.3003555 386.615012,74.9527324 Z M494.437073,69.5747724 C493.365246,61.3950366 488.62664,55.8666635 481.029828,55.8666635 C473.433016,55.8666635 468.69441,61.2822127 467.265307,69.5747724 L494.437073,69.5747724 Z M449.60836,74.9715176 L449.60836,74.7458697 C449.60836,56.3555673 462.526702,41.2183551 481.029828,41.2183551 C502.259533,41.2183551 512,57.9162984 512,76.174973 C512,76.8989266 511.967093,77.6839932 511.920083,78.4972658 L511.755548,80.9887945 L511.755548,80.9887945 L467.509759,80.9887945 C468.639118,88.5818677 475.378472,94.0565724 483.041855,93.6062719 C489.09674,93.6062719 493.47807,91.7258729 498.461127,86.9872674 L508.784518,96.2576346 C502.54053,104.175723 492.893382,108.639538 482.816207,108.273384 C463.711353,108.273384 449.60836,94.6780994 449.60836,74.9715176 Z" fill="#000000"></path>
        <g>
            <path d="M25.5407911,141.029935 C75.7152527,136.634666 119.737292,105.814939 141.034899,60.1727773 C114.656706,22.477003 71.5492703,0.0179026927 25.5407911,8.4893736e-06 C21.4415212,8.4893736e-06 17.3234474,0.181780395 13.1865695,0.545324207 C-8.08551798,46.2183997 -3.37614579,99.7704844 25.5407911,141.029935 L25.5407911,141.029935 Z" fill="url(#spaceLinearGradient-1)"></path>
            <path d="M13.3370015,0.564128197 C43.3574743,12.7670901 69.1508873,33.4881035 87.537547,60.1727773 L141.034899,60.1727773 C114.735557,22.4556909 71.6532166,-0.0159455399 25.6724191,0 C21.5731492,0 17.4613433,0.188048392 13.3370015,0.564128197 L13.3370015,0.564128197 Z" fill="url(#spaceLinearGradient-2)"></path>
            <path d="M87.537547,60.1727773 C81.0877783,102.801423 25.4843792,141.029935 25.4843792,141.029935 C76.0483089,136.253722 120.369314,105.979298 141.034899,60.1727773 L87.537547,60.1727773 Z" fill="url(#spaceLinearGradient-3)"></path>
        </g>
    </g>
</svg>

<svg preserveAspectRatio="xMidYMid" viewBox="0 0 512 142" xmlns="http://www.w3.org/2000/svg">
  <defs>
    <linearGradient id="jetbrains-space_svg__a" x1="45.082%" x2="55.522%" y1="-1.343%" y2="97.61%">
      <stop offset="0%" stop-color="#FCF84A"/>
      <stop offset="32%" stop-color="#ABE682"/>
      <stop offset="79%" stop-color="#36CDD2"/>
      <stop offset="100%" stop-color="#07C3F2"/>
    </linearGradient>
    <linearGradient id="jetbrains-space_svg__b" x1="-2.942%" x2="100.445%" y1="38.992%" y2="62.105%">
      <stop offset="0%" stop-color="#3BEA62"/>
      <stop offset="100%" stop-color="#087CFA"/>
    </linearGradient>
    <linearGradient id="jetbrains-space_svg__c" x1="-3.308%" x2="111.745%" y1="71.807%" y2="15.462%">
      <stop offset="0%" stop-color="#009AE5"/>
      <stop offset="18%" stop-color="#0490DD"/>
      <stop offset="49%" stop-color="#1073C6"/>
      <stop offset="89%" stop-color="#2346A1"/>
      <stop offset="100%" stop-color="#293896"/>
    </linearGradient>
  </defs>
  <path d="m168.658 94.546 10.737-13.162c7.522 6.243 15.307 10.21 24.803 10.21 7.338 0 11.758-2.863 11.97-7.578l.008-.526-.01-.477c-.111-2.42-1.119-4.226-4.27-5.946l-.636-.332c-.222-.11-.452-.221-.692-.331l-.75-.33-.81-.332-.428-.166-.902-.333a53.53 53.53 0 0 0-.475-.167l-1-.338a71.392 71.392 0 0 0-.526-.17l-1.102-.343-1.173-.35a114.6 114.6 0 0 0-.613-.176l-1.952-.54-3.428-.905-1.319-.361-1.926-.553-1.248-.377-1.218-.386-1.188-.397-1.157-.408c-10.652-3.867-17.19-9.449-17.417-22.007l-.006-.924c0-15.05 11.775-25.081 28.385-25.343l.667-.005a47.574 47.574 0 0 1 30.839 10.7l-9.402 13.933c-7.353-5.17-14.592-8.292-21.587-8.292-6.995 0-10.681 3.234-10.681 7.333l.003.508.026.547c.227 3.023 1.804 4.868 6.19 6.67l.803.318.863.318.925.32.99.324 1.053.328 1.122.334 1.812.515 1.298.356 3.58.948 1.497.415c.492.14.977.282 1.455.426l1.413.438c13.452 4.296 20.94 10.445 21.19 23.093l.007.904c0 16.698-12.58 26.081-30.481 26.081a52.484 52.484 0 0 1-35.239-13.464Zm125.441-19.819v-.244c0-10.7-7.108-17.789-15.532-17.789-8.273 0-15.169 6.838-15.412 17.219l-.007.814c0 10.68 6.995 17.77 15.42 17.77 8.423 0 15.531-6.958 15.531-17.77Zm-48.758-32.324h18.033v9.252a23.26 23.26 0 0 1 19.175-10.458l.644.003c14.645 0 28.61 11.499 28.934 32.536l.005.991c0 21.262-13.556 33.008-28.414 33.278l-.525.005a24.445 24.445 0 0 1-19.82-9.609v27.586h-18.032V42.403ZM360.045 84.11v-3.253a27.529 27.529 0 0 0-11.508-2.407c-7.71 0-12.448 3.122-12.448 8.895v.225c0 4.927 4.024 7.823 9.834 7.823 8.424 0 14.122-4.683 14.122-11.283Zm-41.388 4.194v-.17c0-14.065 10.55-20.552 25.611-20.552a44.547 44.547 0 0 1 15.533 2.65v-1.09c0-7.521-4.626-11.771-13.633-11.771a46.183 46.183 0 0 0-17.544 3.479l-4.513-13.934a55.512 55.512 0 0 1 23.56-5.185l1.11.014c9.835 0 16.924 2.651 21.475 7.22 4.55 4.57 6.863 11.885 6.863 20.553v37.289h-17.431V99.83a24.295 24.295 0 0 1-19.218 8.18c-11.978 0-21.813-6.976-21.813-19.706Zm67.958-13.351v-.226a32.85 32.85 0 0 1 32.163-33.524l.588-.007.588.004c11.979 0 19.444 4.08 25.367 10.812l-11.02 12.016c-4.042-4.325-8.066-7.09-14.478-7.09-8.846 0-15.19 7.764-15.413 17.037l-.006.752c0 9.853 6.299 17.77 16.133 17.77 6.055 0 10.211-2.633 14.592-6.845l10.55 10.812-.81.884-.824.861-.838.836c-5.504 5.347-12.12 9.022-22.677 9.203l-.82.007c-18.048.231-32.866-14.212-33.098-32.26-.005-.347-.004-.695.003-1.042Zm107.822-5.378c-1.072-8.18-5.81-13.708-13.407-13.708s-12.336 5.415-13.765 13.708h27.172Zm-44.829 5.397v-.226c0-18.39 12.919-33.528 31.422-33.528 21.23 0 30.97 16.698 30.97 34.957 0 .724-.033 1.509-.08 2.322l-.164 2.492H467.51c1.13 7.593 7.868 13.068 15.532 12.617 6.055 0 10.436-1.88 15.42-6.619l10.323 9.27a31.61 31.61 0 0 1-25.969 12.016c-19.105 0-33.208-13.595-33.208-33.301Z"/>
  <path fill="url(#jetbrains-space_svg__a)" d="M25.54 141.03c50.175-4.395 94.197-35.215 115.495-80.857A141.03 141.03 0 0 0 25.54 0c-4.1 0-8.218.182-12.354.545C-8.086 46.218-3.376 99.77 25.54 141.03Z"/>
  <path fill="url(#jetbrains-space_svg__b)" d="M13.337.564a166.04 166.04 0 0 1 74.2 59.609h53.498A140.579 140.579 0 0 0 25.672 0c-4.099 0-8.21.188-12.335.564Z"/>
  <path fill="url(#jetbrains-space_svg__c)" d="M87.538 60.173c-6.45 42.628-62.054 80.857-62.054 80.857 50.564-4.776 94.885-35.05 115.55-80.857H87.539Z"/>
</svg>
